X: 315
T: The red rose
C: anon.
O: Ireland
B: Francis O'Neill: "The Dance Music of Ireland" (1907) no. 315
R: Double jig
Z: Transcribed by Frank Nordberg - http://www.musicaviva.com
F: http://www.musicaviva.com/abc/tunes/ireland/oneill-1001/oneill-1001-031
5.abc
M: 6/8
L: 1/8
K: G
(d/B/)|GAG GBd|geg e2d|ege dBG|ABA A2(d/B/)|GAG GBd|gfg e2d|ege dBG|AGG G
2: |
|:d|gab bag|fag ged|ege dBG|ABA A2d|gab bag|gfg e2d|ege dBG|AGG G2:|
W:
W:
W: From Musica Viva - http://www.musicaviva.com
W: the Internet center for free sheet music downloads.


